static/logos/descript-wordmark-color.svg

<svg width="100" height="24" viewBox="0 0 100 24" fill="none" xmlns="http://www.w3.org/2000/svg">
<g clip-path="url(#clip0_1_3089)">
<path fill-rule="evenodd" clip-rule="evenodd" d="M0.523438 21.4934C0.523438 22.7846 1.35148 23.622 2.62793 23.622L8.77674 23.622C12.4449 23.622 15.4455 22.3667 17.4855 20.169H0.523438V21.4934ZM8.77674 0.000118109L2.62793 0C1.35148 0 0.523438 0.837512 0.523438 2.12869V3.45305H17.4855C15.4455 1.25539 12.4449 0.000118109 8.77674 0.000118109ZM14.1429 15.1768C14.1429 16.2214 14.8156 16.8991 15.8528 16.8991H19.5372C19.9549 15.8508 20.2356 14.6983 20.366 13.4546H15.8528C14.8156 13.4546 14.1429 14.1322 14.1429 15.1768ZM9.03588 8.4537C9.03588 9.49835 9.70863 10.176 10.7458 10.176H20.366C20.2356 8.93228 19.9549 7.77976 19.5372 6.73143H10.7458C9.70863 6.73143 9.03588 7.40902 9.03588 8.4537ZM10.7446 15.1768C10.7446 14.1322 10.0719 13.4546 9.03469 13.4546H0.523438V16.8991H9.03469C10.0719 16.8991 10.7446 16.2215 10.7446 15.1768ZM5.63766 8.4537C5.63766 7.40902 4.96492 6.73143 3.92774 6.73143H0.523438V10.176H3.92774C4.96492 10.176 5.63766 9.49835 5.63766 8.4537Z" fill="#0062FF"/>
<path fill-rule="evenodd" clip-rule="evenodd" d="M43.7937 11.4554C44.0678 10.1074 44.9528 9.42195 46.1161 9.42195C47.2693 9.42195 48.1126 10.1381 48.3817 11.4554H43.7937ZM46.1793 7.08667C43.2174 7.08667 41.375 9.48643 41.375 12.4218C41.375 15.4618 43.3437 17.7166 46.2696 17.7166C48.2876 17.7166 49.5117 16.7703 50.2693 15.5787L48.3856 14.3583C47.9119 15.0145 47.1541 15.3611 46.3419 15.3611C45.0132 15.3611 44.1234 14.7302 43.8202 13.4686H48.7922C48.7917 13.4703 48.7914 13.4719 48.7909 13.4737L50.6034 13.4845C50.6722 13.1524 50.7126 12.8094 50.7126 12.4218C50.7126 9.86494 49.1594 7.08667 46.1793 7.08667Z" fill="#0062FF"/>
<path fill-rule="evenodd" clip-rule="evenodd" d="M33.7915 15.3544C31.969 15.3544 30.8735 14.0323 30.8735 12.4015C30.8735 10.7708 31.99 9.44885 33.7915 9.44885C35.5929 9.44885 36.7095 10.7708 36.7095 12.4015C36.7095 14.0323 35.6139 15.3544 33.7915 15.3544ZM36.5109 8.64735C35.7832 7.76291 34.75 7.22075 33.4674 7.22075C30.6007 7.22075 28.5391 9.57042 28.5391 12.4687C28.5391 15.367 30.5812 17.7166 33.4674 17.7166C34.75 17.7166 35.7832 17.1744 36.5109 16.2899V17.4581H39.0439V3.54333H36.5109V8.64735Z" fill="#0062FF"/>
<path fill-rule="evenodd" clip-rule="evenodd" d="M58.4617 12.2271C59.1493 12.7133 59.5853 13.4422 59.5853 14.404C59.5853 16.348 58.2903 17.6967 55.8694 17.6967C53.591 17.6967 52.3693 16.5154 51.8828 15.3224L53.974 14.0867C53.974 14.0867 54.2555 15.376 55.8318 15.376C56.8077 15.376 57.108 14.9396 57.108 14.5541C57.108 14.3756 57.0516 14.047 56.3573 13.7692C54.9627 13.2116 52.2662 12.9614 52.2662 10.4171C52.2662 8.33452 53.8794 7.22374 55.8694 7.22374C57.7301 7.22374 58.9254 8.39531 59.3791 9.30681L57.3332 10.5163C57.3332 10.5163 56.9391 9.50468 55.8882 9.50468C54.8373 9.50468 54.7434 10.1196 54.7434 10.2981C54.7434 10.8189 55.2679 11.0326 56.3949 11.3693C57.0621 11.5686 57.7474 11.7496 58.4638 12.2252C58.4631 12.2259 58.4624 12.2265 58.4617 12.2271ZM99.7386 9.9609H97.6174V14.0866C97.6174 15.376 98.856 15.0982 99.7386 15.0982V17.419C99.7386 17.419 99.2741 17.4983 98.4623 17.4983C96.6607 17.4983 95.1969 16.943 95.1969 14.0866V9.9609H93.5638V7.5013H95.1969V4.72437H97.6174V7.5013H99.7386V9.9609ZM65.6037 15.1974C66.6082 15.1974 67.3807 14.6909 67.7711 13.86L69.8696 15.1318C69.0474 16.656 67.5153 17.7165 65.6037 17.7165C62.7043 17.7165 60.6775 15.372 60.6775 12.48C60.6775 9.58799 62.723 7.24351 65.6037 7.24351C67.4872 7.24351 69.0136 8.28665 69.8447 9.79059L67.7508 11.0914C67.3529 10.2714 66.5865 9.76255 65.6037 9.76255C64.1386 9.76255 63.0984 10.9792 63.0984 12.48C63.0984 13.9808 64.1291 15.1974 65.6037 15.1974Z" fill="#0062FF"/>
<path fill-rule="evenodd" clip-rule="evenodd" d="M87.8594 15.1704C86.2822 15.1704 85.3342 13.9263 85.3342 12.3918C85.3342 10.8571 86.3003 9.6131 87.8594 9.6131C89.4185 9.6131 90.3846 10.8571 90.3846 12.3918C90.3846 13.9263 89.4366 15.1704 87.8594 15.1704ZM88.1602 7.18907C90.8224 7.18907 92.7366 9.51845 92.7366 12.3918C92.7366 15.2651 90.8405 17.5944 88.1602 17.5944C86.9696 17.5944 86.0098 17.0569 85.3342 16.1801V21.2599H82.9822V7.46506H85.3342V8.60333C86.0098 7.72656 86.9696 7.18907 88.1602 7.18907ZM78.4614 17.3381V7.48467H80.8129V17.3381H78.4614ZM74.0784 9.16782C74.5323 7.97381 75.457 7.29082 76.8495 7.28775V10.1255C75.2167 9.95853 74.0373 10.8361 74.0803 12.9091C74.0796 12.9076 74.0791 12.906 74.0784 12.9044V17.3381H71.7266V7.4848H74.0784V9.16782ZM78.4614 6.16971V3.54333H80.8909V6.16971H78.4614Z" fill="#0062FF"/>
</g>
<defs>
<clipPath id="clip0_1_3089">
<rect width="100" height="23.622" fill="white"/>
</clipPath>
</defs>
</svg>

<svg xmlns="http://www.w3.org/2000/svg" width="266.667" height="64" fill="none" viewBox="0 0 100 24"><g fill="#0062FF" fill-rule="evenodd" clip-path="url(#a)" clip-rule="evenodd"><path d="M.523 21.493c0 1.292.828 2.129 2.105 2.129h6.149c3.668 0 6.668-1.255 8.708-3.453H.523v1.324ZM8.777 0h-6.15C1.352 0 .524.838.524 2.129v1.324h16.962C15.445 1.255 12.445 0 8.777 0Zm5.366 15.177c0 1.044.673 1.722 1.71 1.722h3.684c.418-1.048.699-2.2.829-3.444h-4.513c-1.037 0-1.71.677-1.71 1.722ZM9.036 8.454c0 1.044.673 1.722 1.71 1.722h9.62a12.925 12.925 0 0 0-.829-3.445h-8.791c-1.037 0-1.71.678-1.71 1.723Zm1.709 6.723c0-1.045-.673-1.722-1.71-1.722H.523v3.444h8.512c1.037 0 1.71-.678 1.71-1.722ZM5.638 8.454c0-1.045-.673-1.723-1.71-1.723H.523v3.445h3.405c1.037 0 1.71-.678 1.71-1.722ZM43.794 11.455c.274-1.348 1.159-2.033 2.322-2.033 1.153 0 1.997.716 2.266 2.033h-4.588Zm2.385-4.368c-2.962 0-4.804 2.4-4.804 5.335 0 3.04 1.969 5.295 4.895 5.295 2.018 0 3.242-.947 4-2.138l-1.884-1.22c-.474.655-1.232 1.002-2.044 1.002-1.329 0-2.219-.63-2.522-1.892h4.972l-.001.005 1.812.01c.07-.332.11-.675.11-1.062 0-2.557-1.554-5.335-4.534-5.335ZM33.791 15.354c-1.822 0-2.917-1.322-2.917-2.952 0-1.631 1.116-2.953 2.918-2.953 1.8 0 2.917 1.322 2.917 2.953 0 1.63-1.095 2.952-2.918 2.952Zm2.72-6.707c-.728-.884-1.761-1.426-3.044-1.426-2.866 0-4.928 2.35-4.928 5.248s2.042 5.248 4.928 5.248c1.283 0 2.316-.543 3.044-1.427v1.168h2.533V3.543H36.51v5.104ZM58.462 12.227c.687.486 1.123 1.215 1.123 2.177 0 1.944-1.295 3.293-3.716 3.293-2.278 0-3.5-1.182-3.986-2.375l2.091-1.235s.282 1.289 1.858 1.289c.976 0 1.276-.436 1.276-.822 0-.178-.056-.507-.75-.785-1.395-.557-4.092-.808-4.092-3.352 0-2.082 1.613-3.193 3.603-3.193 1.861 0 3.056 1.171 3.51 2.083l-2.046 1.21s-.394-1.012-1.445-1.012c-1.05 0-1.145.615-1.145.793 0 .52.525.735 1.652 1.071.667.2 1.352.38 2.069.856l-.002.002Zm41.277-2.266h-2.122v4.126c0 1.289 1.239 1.011 2.122 1.011v2.321s-.465.08-1.277.08c-1.801 0-3.265-.556-3.265-3.412V9.96h-1.633V7.5h1.633V4.724h2.42v2.777h2.122v2.46Zm-34.135 5.236c1.004 0 1.777-.506 2.167-1.337l2.099 1.272c-.823 1.524-2.355 2.585-4.266 2.585-2.9 0-4.926-2.345-4.926-5.237s2.045-5.236 4.926-5.236c1.883 0 3.41 1.043 4.24 2.547l-2.093 1.3c-.398-.82-1.165-1.328-2.147-1.328-1.465 0-2.506 1.216-2.506 2.717 0 1.5 1.031 2.717 2.506 2.717ZM87.86 15.17c-1.578 0-2.526-1.244-2.526-2.778 0-1.535.966-2.779 2.525-2.779 1.56 0 2.526 1.244 2.526 2.779 0 1.534-.948 2.778-2.526 2.778Zm.3-7.98c2.662 0 4.577 2.328 4.577 5.202 0 2.873-1.896 5.202-4.577 5.202-1.19 0-2.15-.537-2.826-1.414v5.08h-2.352V7.465h2.352v1.138c.676-.876 1.636-1.414 2.826-1.414Zm-9.699 10.148V7.485h2.352v9.853H78.46Zm-4.383-8.17c.454-1.194 1.379-1.877 2.772-1.88v2.838c-1.633-.167-2.813.71-2.77 2.783 0-.001 0-.003-.002-.005v4.434h-2.351V7.485h2.351v1.683Zm4.383-2.998V3.543h2.43V6.17h-2.43Z"/></g><defs><clipPath id="a"><path fill="#fff" d="M0 0h100v23.622H0z"/></clipPath></defs></svg>
